!!!!SEGMENT: pl-wnifc--6738-n--001_orda-napoleon--polonaise.krn
!!!cenid: 18xx:3980
!!!COM: Orda, Napoleon
!!!COM-rismID: pe41011207
!!!CDT: 1807/02/11-1833/04/26
!!!CNT:
!!!OTL: Polonaise
!!!PDT:
!!!AGN:
!!!YEC: Copyright 2022 Narodowy Instytut Fryderyka Chopina (https://polishscores.org)
!!!YEM: License CC-BY-4.0 (https://creativecommons.org/licenses/by/4.0)
!!!SMS-siglum: PL-Wnifc
!!!SMS-shelfmark: 6738/n
!!!SMS-shelfwork: 001 W
!!!SMS-variant:
!!!SMS-altvar:
!!!NIFC-rismSourceID: 1001157997
!!!NIFC-rismChildID: 1001158152
!!!NIFC-islandoraID: nifc:213460
!!!URL-pdf-islandora: https://repozytorium.nifc.pl/islandora/object/nifc%3A213460/datastream/PDF/view
!!!URL-scan: https://polish.musicsources.pl/pl/lokalizacje/galeria/klocki-introligatorskie/688 @EN{Scan on Polish Music Sources Website} @PL{Skany w portalu Dziedzictwo Muzyki Polskiej w otwartym dostępie}
!!!IIIF:
!!!ONB-nifc: UWAGA: skany 26-27
!!!AIN: 2 piano
!!!key: E-
**kern	**kern	**dynam
*part2	*part1	*
*staff2	*staff1	*
*I"PIANO.	*I"PIANO.	*
*'pf	*I'pf	*
*ICklav	*ICklav	*
*Ipiano	*Ipiano	*
*clefF4	*clefG2	*
*k[b-e-a-]	*k[b-e-a-]	*
*E-:	*E-:	*
*M3/4	*M3/4	*
=1	=1	=1
*	*^	*
*	*ped	*	*
!	!LO:TX:t=P:problem: [quarter] cauda \	!	!
!	!LO:TX:a:B:t=Moderato.	!	!
!	!LO:TX:a:B:t=Metr&colon; [quarter] = 92.	!	!
8EE-/	8.gg/L	8r	.
4G\ 4e-	.	8g\ 8b-	.
.	16ff/Jk	.	.
.	8.ee-/L	8r	.
8G\ 8e-	.	8g\ 8b-	.
.	16dd/Jk	.	.
8G\L 8e-	8.ee-/L	8r	.
8G\J 8e-	.	8g\ 8b-	.
.	16een/Jk	.	.
*	*Xped	*	*
=2	=2	=2	=2
*	*ped	*	*
8AA-/	16gg'/LL	8r	.
.	16bn/	.	.
4A-\ 4c	16cc/	8a-\ 8cc	.
.	16een/JJ	.	.
.	[>4ff/	8r	.
8A-\L 8c	.	8a-\ 8cc	.
8A-\ 8c	8ff/L]	8a-\L 8cc	.
8A-\J 8c	8ee/J	8a-\J 8cc	.
*	*Xped	*	*
=3	=3	=3	=3
*	*	*	*^
8BB-/	8.dd/L	8r	.	<
8B-\ 8d	.	8a-\ 8b-	.	.
.	16ee-/Jk	.	.	.
8BB-\L	8.een/L	8r	.	.
8B-\J 8d	.	8a-\ 8b-	.	.
.	16ff/Jk	.	.	.
!	!	!	!LO:HP:a	!
8BB-\L	8.ccc/L	8r	>	.
8B-\J 8d	.	8dd\ 8ff	.	.
.	16bb-/Jk	.	]]	[[
*	*	*	*v	*v
=4	=4	=4	=4
8EE-/	8.aa-/L	8r	.
4G\ 4e-	.	8b-\ 8ee-	.
.	16ff#X/Jk	.	.
.	4gg/	8r	.
8G\ 8e-	.	8b-\ 8ee-	.
8B-\L 8f	4aa-/	8r	.
8B-\J 8f	.	8b-\ 8dd	.
=5	=5	=5	=5
8EE-\L	(4.bb-/	8r	f
8G\ 8e-	.	8b-\L 8ee-	.
8G\ 8e-	.	8b-\J 8ee-	.
(8G\ 8e-	8ggg/L	8bb-\L	.
8B-\ 8f	8fff/	8aa-\	.
8e-\J) 8g	8eee-/J)	8gg\J	.
!!LO:LB:g=original	!	!	!
=6	=6	=6	=6
8AA-/	4ddd/	8r	.
4A-\ 4e- 4a-	.	8cc\ 8ff#X	.
.	4ccc/	8r	.
8A-\ 8e- 8a-	.	8cc\ 8ff#	.
8AA-\L	8.ddd/L	8r	.
8A-\J 8e- 8a-	.	8cc\ 8ff#	.
.	16ccc/Jk	.	.
=7	=7	=7	=7
8GG\L	4bbn/	8r	.
8G\J 8d	.	8bn\ 8gg	.
8AA-\L	8ddd/L	8r	.
8A-\J 8e-	8ccc/	8cc\ 8ff	.
8FF\L	8bb-X/	8r	.
!	!	!	!LO:HP:b:t=Cres
8F\J 8c	8aa-/J	8cc\ 8ff	<
=8	=8	=8	=8
8BB-\L	8gg/L	8r	.
8B-\ 8g	8ee-/	8b-\L	.
8f\	8dd/	8a-\	.
8e-\	8cc/	8g\	.
8d\	8b-/	8f\	>
8B-\J	8ff#X/J	8f\J 8an	]]
=9	=9	=9	=9
*	*ped	*	*
8EE-/	8.gg/L	8r	.
4G\ 4e-	.	8g\ 8b-	.
.	16ff/Jk	.	.
.	8.ee-/L	8r	.
8G\ 8e-	.	8g\ 8b-	.
.	16dd/Jk	.	.
8G\L 8e-	16ee-/LL	8g\L 8b-	.
.	16dd/	.	.
8G\J 8e-	16ee-/	8g\J 8b-	.
.	16een/JJ	.	.
*	*Xped	*	*
=10	=10	=10	=10
*	*ped	*	*
8AA-/	16gg/LL	8r	.
.	16bn/	.	.
4A-\ 4e-	16cc/	8a-\	.
.	16een/JJ	.	.
.	[4ff/	8r	.
8A-\L 8e-	.	8a-\L 8cc	.
8A-\ 8e-	8ff/L]	8a-\ 8cc	.
8A-\J 8e-	8ee/J	8a-\J 8cc	.
*	*Xped	*	*
!!LO:LB:g=original	!	!	!
=11	=11	=11	=11
8BB-/	8.dd/L	8r	<
4B-\ 4f	.	8a-\ 8b-	.
.	16ee-/Jk	.	.
.	8.een/L	8r	.
8B-\ 8f	.	8a-\ 8b-	.
.	16ff/Jk	.	.
8BB-\L	8.ccc/L	8r	.
8B-\J 8f	.	8dd\ 8ff	.
.	16bb-/Jk	.	[[
=12	=12	=12	=12
8EE-/	8.aa-/L	8r	>
4G\ 4e-	.	8b-\ 8ee-	.
.	16ff#X/Jk	.	.
.	4gg/	8r	.
8G\L 8e-	.	8b-\ 8ee-	.
8B-\ 8f	4aa-/	8r	.
8B-\J 8f	.	8b-\ 8dd	]]
=13	=13	=13	=13
*	*	*ped	*
8GG\L 8G	4bb-/	8r	.
*	*	*Xped	*
8G\J 8g	.	8b-\ 8ee-	.
*	*	*ped	*
8AA-\L	4ccc/	8r	.
*	*	*Xped	*
8A-\J 8a-	.	8cc\ 8ee-	.
*	*	*ped	*
8BB-\L	4ddd/	8r	.
*	*	*Xped	*
8B-\J 8b-	.	8dd\ 8aa-	.
=14	=14	=14	=14
*	*	*ped	*
8C/	4eee-/	8r	.
*clefG2	*	*Xped	*
8c/ 8cc	.	8ee-\ 8aa-	.
*clefF4	*	*ped	*
8D\	4fff/	8r	.
*clefG2	*	*Xped	*
8d/ 8dd	.	8ff\ 8bb-	.
*clefF4	*	*ped	*
8BB-\L	4aaa-/	8r	.
*	*	*Xped	*
8B-\J 8f	.	8gg\ 8fff#X	.
=15	=15	=15	=15
8EE-\L	16ggg/LL	16r	>
.	16ddd/	8.gg\	.
8G\J 8e-	16fff/	.	.
.	16eee-/JJ	.	.
8AA-\L	16ddd/LL	16r	.
.	16bbn/	8.ff\	.
8A-\J 8e-	16ddd/	.	.
.	16ccc/JJ	.	.
8AA-\L	16bb-X/LL	16r	.
.	16ff/	8.cc\	.
8A-\J 8f	16bb-/	.	.
.	16aa-/JJ	.	]]
!!LO:LB:g=original	!	!	!
=16	=16	=16	=16
8BB-/	16gg/LL	8r	f
.	16b-/	.	.
*	*	*ped	*
4B-\ 4d	16cc/	8a-\ 8cc	.
.	16dd/JJ	.	.
.	4ff/	8r	.
8B-\ 8d	.	8a-\L 8b-	.
*	*	*Xped	*
4E-\ 4e-	4ee-/	8g\J 8b-	.
.	.	8r	.
*	*v	*v	*
=17||	=17||	=17||
8BBB-/	[4cc-X\ [4ee- [4gg-X [4ccc-X	mf
16G-X\LL 16c-X 16e- 16g	.	.
16G-\JJ 16c- 16e- 16g	.	.
8G-\L 8c- 8e- 8g	16cc-\LL] 16ee-] 16gg-] 16ccc-]	.
.	16b-\ 16bb-	.
8G-\ 8c- 8e- 8g	16cc-\ 16ccc-	.
.	16ee-\JJ 16eee-	.
8G-\ 8c- 8e- 8g	16gg-\LL 16ggg	.
.	16ee-\ 16eee-	.
8G-\J 8c- 8e- 8g	16cc-\ 16ccc-	.
.	16an\JJ 16aan	.
=18	=18	=18
8F\ 8B- 8d 8f	8b-\L 8bb-	.
[8BB-/	8f\ 8b- 8dd 8ff	p
16BB-/LL]	8f\ 8b- 8dd 8ff	.
(<16AAn/JJ	.	.
16BB-/LL	8f\ 8b- 8dd 8ff	.
16D/JJ	.	.
16F\LL	8f\ 8b- 8dd 8ff	.
16B-\	.	.
16d\	8f\J 8b- 8dd 8ff	.
16B-\JJ)	.	.
=19	=19	=19
[8c-X\L	8g-X\L 8cc-X 8ee- 8gg-X	f
16c-\L]	8g-\ 8cc- 8ee- 8gg-	.
16B-\JJ	.	.
!	!	!LO:HP:b=2
(16c-\LL	8g-\ 8cc- 8ee- 8gg-	<
16e-\	.	.
16g-X\	8g-\ 8cc- 8ee- 8gg-	.
16e-\JJ	.	.
16c-\LL	8g-\ 8cc- 8ee- 8gg-	.
16G\	.	.
16E-\	8g-\J 8cc- 8ee- 8gg-	[[
16AAn\JJ)	.	.
=20	=20	=20
(8BB-\L	8f\L 8b- 8dd 8ff	.
16C\L	8f#X\ 8b- 8dd 8ff#X	.
16D\JJ	.	.
16E-\LL	8g\ 8b- 8ee- 8gg	.
16F\	.	.
16G\	8g\ 8b- 8ee- 8gg	.
16A-\JJ	.	.
16An\LL	8g\ 8b- 8ee- 8gg	.
16B-\	.	.
8qqd/	.	.
16c\	8g\J 8b- 8ee- 8gg	.
16B-\JJ)	.	.
!!LO:LB:g=original	!	!
=21	=21	=21
*	*ped	*
8BB-\L	8ff\L	.
16B-\L 16d	16a-\L 16b-	.
16B-\JJ 16d	16a-\JJ 16b-	.
8B-\L	8a-\L 8b-	.
16An\L	8a-\ 8b- 8aa-	.
16B-\JJ	.	.
16Bn\LL	8a-\ 8b- 8gg	.
16c\	.	.
*	*Xped	*
16c#X\	8a-\J 8b- 8ff	.
16d\JJ	.	.
=22	=22	=22
*	*ped	*
8E-\L	8g\L 8b- 8ee-	.
.	8qqccc/	.
8G\ 8e-	16gg\L 16bb-	.
.	16ff#X\JJ 16aan	.
8B-\ 8g	8gg\L 8bb-	.
8G\ 8e-	16eee-\L 16ggg	.
.	16ddd\JJ 16fff	.
8B-\ 8g	16ccc\LL 16eee-	.
.	16bb-\ 16ddd	.
8G\J 8e-	16aa\ 16ccc	.
.	16gg\JJ 16bb-	.
*	*Xped	*
=23	=23	=23
8BB-\L	16ff\LL 16aa-	.
.	16een\ 16gg	.
8B-\J 8f	16ff\ 16aa-	.
.	16dd\JJ 16bb-	.
8E-\L	16ee\LL 16gg	.
.	16dd\ 16ff#X	.
8G\J 8e-	16ee\ 16gg	.
.	16cc\JJ 16aa-	.
8BB-\L	16dd\LL 16ff#	.
.	16cc#X\ 16een	.
8G\J 8d	16dd\ 16ff#	.
.	16bn\JJ 16gg	.
=24	=24	=24
8C\L 8c	16cc\LL 16ee-	<
.	16dd\	.
8BB-\ 8B-	16cc\ 16ee-	.
.	16een\JJ	.
8AAn\ 8An	8cc\L 8ff	.
8AA-X\ 8A-X	8cc\ 8dd 8ff#X	.
8GG\ 8G	8bn\ 8dd 8gg	.
8FF\J 8F	8b-X\J 8dd 8aa-	[[
!!LO:LB:g=original	!	!
=25	=25	=25
8EE-\L 8E-	8g\L 8b- 8ee- 8gg	f
8A-\ 8a-	16dd\L 16gg	.
.	16ff\JJ	.
8G\ 8g	8b-\L 8ee-	.
!	!LO:TX:b:t=Risoluto.	!
8D\ 8d	16b-\L 16ff 16bb-	.
.	16aa-\JJ	.
8E-\ 8e-	8b-\L 8ee- 8gg	.
8G\J 8g	8b-\J 8cc#X 8een	.
=26	=26	=26
8A-\L 8a-	8cc\L 8ff	<
8En\ 8en	8cc\ 8gg	.
8F\ 8f	8cc\ 8aa-	.
8GG\ 8G	8bn\ 8dd 8ff 8bbn	.
8AA-\ 8A-	8cc\ 8ff 8ccc	.
8AAn\J 8An	8ee-\J 8eee-	[[
=27	=27	=27
4BBB-/ 4BB-	16ee-\LL 16gg 16bb-	>
.	16aan\	.
.	16ccc\	.
.	16bb-\JJ	.
4G\ 4e-	16b-\LL 16ee- 16gg	.
.	16ff#X\	.
.	16aa-X\	.
.	16gg\JJ	.
4E-\ 4B-	16g\LL 16b- 16ee-	.
.	16dd\	.
.	16ff#\	.
.	16ee-\JJ	]]
=28	=28	=28
2B-\ 2f	16a-\LL 16dd	<
.	16cc\	.
.	16b-\	.
.	16an\JJ	.
.	16b-\LL	.
.	16bn\	.
.	16cc\	.
.	16cc#X\JJ	.
!	!LO:TX:b:i:t=Ritard.	!
4r	16dd\LL	.
.	16ee-\	.
.	16ff\	.
.	16ff#X\JJ	[[
!!LO:PB:g=original	!	!
=29||	=29||	=29||
*	*^	*
*	*ped	*	*
8EE-/	8.gg/L	8r	.
4G\ 4e-	.	8g\ 8b-	.
.	16ff/Jk	.	.
.	8.ee-/L	8r	.
8G\ 8e-	.	8g\ 8b-	.
.	16dd/Jk	.	.
!	!LO:N:vis=8	!	!
8G\L 8e-	8.ee-/L	8r	.
8G\J 8d-X	.	8g\ 8b-	.
!	!LO:N:vis=8	!	!
.	16een/Jk	.	.
*	*Xped	*	*
=30	=30	=30	=30
*	*ped	*	*
8AA-/	16gg/LL	8r	.
.	16bn/	.	.
4A-\ 4c	16cc/	8a-\	.
.	16een/JJ	.	.
.	[4ff/	8r	.
8A-\ 8c	.	8a-\ 8cc	.
8A-\L 8c	8ff/L]	8a-\L 8cc	.
8A-\J 8c	8ee/J	8a-\J 8cc	.
*	*Xped	*	*
=31	=31	=31	=31
*	*	*	*^
8BB-\L	8.dd/L	8r	.	<
8B-\J 8d	.	8a-\ 8b-	.	.
.	16ee-/Jk	.	.	.
8BB-\L	8.een/L	8r	.	.
8B-\J 8d	.	8a-\ 8b-	.	.
.	16ff/Jk	.	.	.
!	!	!	!LO:HP:a	!
8BB-\L	8.ccc/L	8r	>	.
8B-\J 8d	.	8dd\ 8ff	.	.
.	16bb-/Jk	.	]]	[[
*	*	*	*v	*v
=32	=32	=32	=32
8EE-/	8.aa-/L	8r	.
4G\ 4e-	.	8b-\ 8ee-	.
.	16ff#X/Jk	.	.
.	4gg/	8r	.
8G\ 8e-	.	8b-\ 8ee-	.
8B-\L 8f	4aa-/	8r	.
8B-\J 8f	.	8b-\ 8dd	.
=33	=33	=33	=33
8EE-\L	(4bb-/	8r	f
8G\ 8e-	.	8b-\L 8ee-	.
8G\ 8e-	8ryy	8b-\J 8ee-	.
8G\ 8e-	8ggg/L	8bb-\L	.
8B-\ 8f	8fff/	8aa-\	.
8e-\J 8g	8eee-/J)	8gg\J	.
=34	=34	=34	=34
8AA-/	4ddd/	8r	.
4A-\ 4e- 4a-	.	8cc\ 8ff#X	.
.	4ccc/	8r	.
8A-\ 8e- 8a-	.	8cc\ 8ff#	.
8AA-\L	8.ddd/L	8r	.
8A-\J 8e- 8a-	.	8cc\ 8ff#	.
.	16ccc/Jk	.	.
!!LO:LB:g=original	!	!	!
=35	=35	=35	=35
*	*	*ped	*
8GG\L	4bbn/	8r	.
*	*	*Xped	*
8G\J 8d	.	8bn\ 8gg	.
*	*	*ped	*
8AA-\L	8ddd/L	8r	.
*	*	*Xped	*
8A-\J 8e-	8ccc/	8cc\ 8ff	.
*	*	*ped	*
8FF\L	8bb-X/	8r	.
*	*	*Xped	*
8F\J 8c	8aa-/J	8cc\ 8ff	.
=36	=36	=36	=36
!	!	!	!LO:HP:b:t=Cres.
8BB-\L	8gg/L	8r	<
8B-\ 8g	8ee-/	8b-\L	.
8f\	8dd/	8a-\	.
8e-\	8cc/	8g\	.
8d\	8b-/	8f\	.
8B-\J	8ff#X/J	8f\J 8an	.
=37	=37	=37	=37
*	*ped	*	*
8EE-/	(8.gg/L	8r	.
4G\ 4e-	.	8g\ 8b-	.
.	16ff/Jk	.	.
.	8.ee-/L	8r	.
8G\ 8e-	.	8g\ 8b-	.
.	16dd/Jk	.	.
8G\L 8e-	16ee-/LL	8g\L 8b-	.
.	16dd/	.	.
8G\J 8e-	16ee-/	8g\J 8b-	.
.	16een/JJ)	.	.
*	*Xped	*	*
=38	=38	=38	=38
*	*ped	*	*
8AA-/	(16gg/LL	8r	.
.	16bn/	.	.
4A-\ 4e-	16cc/	8a-\ 8cc	.
.	16een/JJ	.	.
.	[4ff/)	8r	.
8A-\ 8e-	.	8a-\ 8cc	.
8A-\L 8e-	8ff/L]	8a-\L 8cc	.
8A-\J 8e-	8ee/J	8a-\J 8cc	.
*	*Xped	*	*
=39	=39	=39	=39
8BB-/	8.dd/L	8r	<
4B-\ 4f	.	8a-\ 8b-	.
.	16ee-/Jk	.	.
.	8.een/L	8r	.
8B-\ 8f	.	8a-\ 8b-	.
.	16ff/Jk	.	.
8BB-\L	8.ccc/L	8r	.
8B-\J 8f	.	8dd\ 8ff	.
.	16bb-/Jk	.	[[
!!LO:LB:g=original	!	!	!
=40	=40	=40	=40
8EE-/	8.aa-/L	8r	.
4G\ 4e-	.	8b-\ 8ee-	.
.	16ff#X/Jk	.	.
.	4gg/	8r	.
8G\ 8e-	.	8b-\ 8ee-	.
8B-\L 8f	4aa-/	8r	.
8B-\J 8f	.	8b-\ 8dd	.
=41	=41	=41	=41
*	*	*ped	*
8GG\L 8G	4bb-^/	8r	.
*	*	*Xped	*
8G\J 8g	.	8b-\ 8ee-	.
*	*	*ped	*
8AA-\L 8A-	4ccc^/	8r	.
*	*	*Xped	*
8A-\J 8a-	.	8cc\ 8ee-	.
*	*	*ped	*
8BB-\L 8B-	4ddd^/	8r	.
*	*	*Xped	*
8B-\J 8b-	.	8dd\ 8aa-	.
=42	=42	=42	=42
*	*	*ped	*
8C/	4eee-^/	8r	.
*clefG2	*	*Xped	*
8c/ 8cc	.	8ee-\ 8aa-	.
*clefF4	*	*ped	*
8D\	4fff^/	8r	.
*clefG2	*	*Xped	*
8d/ 8dd	.	8ff\ 8bb-	.
*clefF4	*	*ped	*
8BB-\L	4aaa-^/	8r	.
*	*	*Xped	*
8B-\J 8f	.	8aa-\ 8fff#X	.
=43	=43	=43	=43
8EE-\L	16ggg/LL	16r	.
.	16ddd/	4gg\	.
8G\J 8e-	16fff/	.	.
.	16eee-/JJ	.	.
8AA-\L	16ddd/LL	.	.
.	16bbn/	4ff\	.
8A-\J 8e-	16ddd/	.	.
.	16ccc/JJ	.	.
8AA-\L	16bb-X/LL	.	.
.	16ff/	8cc\	.
8A-\J 8f	16bb-/	.	.
.	16aa-/JJ	16r	.
=44	=44	=44	=44
8BB-/	16gg/LL	8r	f
.	16b-/	.	.
4B-\ 4d	16cc/	8a-\	.
.	16dd/JJ	.	.
.	4ff/	8r	.
8B-\ 8d	.	8a-\ [>8b-	.
!	!LO:TX:a:t=Fin	!	!
4E-\ 4e-	4ee-/	4g\ 4b-]	.
*	*v	*v	*
==45	==45	==45
*k[b-e-a-d-]	*k[b-e-a-d-]	*
*M3/4	*M3/4	*
*	*ped	*
!	!LO:TX:B:a:t=TRIO.	!
8AAA-/ 8AA-	(16aa-\LL 16ccc	.
.	16ee-\ 16bb-	.
4E-\ 4A- 4c	16cc\ 16aa-	.
.	16ee-\JJ 16bb-	.
.	16aa-\LL 16ccc	.
.	16ee-\ 16bb-	.
8E-\ 8A- 8c	16cc\ 16aa-	.
.	16dd-\JJ) 16ff	.
16AA-\LL	8cc'\L 8ee-	.
16E-\	.	.
16A-\	8a-'\J 8cc	.
16c\JJ	.	.
*	*Xped	*
=46	=46	=46
*	*ped	*
(<16EE-/LL	4g\ 4b- 4dd-	.
16BB-/	.	.
16E-/	.	.
16G/JJ	.	.
16B->\LL	4e-/ 4g 4b-	<
16d->\	.	.
16e->\	.	.
16g>\JJ	.	.
16b->/LL	4G<\ 4B-< 4e-<	.
16dd->/	.	.
16ee->/	.	.
16gg>/JJ)	.	[[
=47	=47	=47
4E-\ 4G 4B-	(<16bb-\LL	>
.	16aa-\	.
.	16gg\	.
.	16ff\JJ	.
8ee->/	16r	.
.	16dd-\LL	.
8ee->/ 8gg> 8bb->	16cc\	.
.	16b-\JJ	.
8ee->/L 8aa-> 8ccc>	16a-\LL	.
.	16g\	.
8ee->/J 8bb-> 8ddd->	16f\	.
.	16e-\JJ)	]]
*	*Xped	*
=48	=48	=48
16cc>\LL	4ee-/ 4aa- 4ccc	.
16a->\	.	.
16e->\	.	.
16c>\JJ	.	.
4C\ 4E- 4A-	(16A-/LL	.
.	16c/	.
.	16e-/	.
.	16a-/JJ	.
4E-\ 4A- 4c	16cc\LL	.
.	16ee-\	.
.	16aa-\	.
.	16ccc\JJ)	.
!!LO:LB:g=original	!	!
=49	=49	=49
4A-\ 4c 4e-	(<16eee-\LL	.
.	16ddd-\	.
.	16ccc\	.
.	16bb-\JJ	.
8rd>	16aa-\LL	.
.	16gg-X\	.
8aa->/ 8ccc> 8eee->	16ff\	.
.	16ee-\JJ	.
8aa->/L 8ddd-> 8fff>	16dd-\LL	.
.	16cc\	.
8aa->/J 8eee-> 8ggg-X>	16b-\	.
.	16a-\JJ)	.
=50	=50	=50
(16DD-/LL	4aa-\ 4ddd- 4fff	f
16AA-/	.	.
16D-/	.	.
16F/JJ	.	.
*clefG2	*	*
16A-/LL	8a-'\L 8dd- 8ff 8aa-	.
16d-/	.	.
16f/	8dd-'\J 8ff 8aa- 8ddd-	.
16a-/JJ	.	.
16dd-\LL	8ff'\L 8aa- 8ddd- 8fff	.
16ff\	.	.
16aa-\	8bbn'\J 8dddn 8aaa-	.
16ddn\JJ)	.	.
=51	=51	=51
*	*ped	*
4ee-\	(16aaa-\LL	.
.	16eee-\ 16ggg	.
.	16ddd-\ 16fff	.
.	16ccc\JJ 16eee-	.
4e-/	16bb-\LL 16ddd-	.
.	16aa-\ 16ccc	.
.	16gg\ 16bb-	.
.	16ff\JJ 16aa-	.
*clefF4	*	*
4E-\	16ee-\LL 16gg	.
.	16dd-\ 16ff	.
.	16cc\ 16ee-	.
.	16bn\JJ) 16ddn	.
=52	=52	=52
2EE-/	16b-X\LL 16dd-X	.
.	16an\ 16cc	.
.	16b-\ 16dd-	.
.	16g\JJ 16ee-	.
.	16a-X\LL 16cc	.
.	16g\ 16bn	.
.	16a-\ 16cc	.
.	16f\JJ 16dd-	.
4E-\	16g\LL 16b-X	.
.	16ee-\	.
.	16ddn\ 16ff	.
.	16dd-X\JJ 16gg	.
!!LO:PB:g=original	!	!
=53	=53	=53
*	*ped	*
8AAA-/ 8AA-	(16cc\LL 16aa- 16ccc	.
.	16ee-\ 16bb-	.
4E-\ 4A- 4c	16cc\ 16aa-	.
.	16ee-\JJ 16bb-	.
.	16aa-\LL 16ccc	.
.	16ee-\ 16bb-	.
8E-\ 8A- 8c	16cc\ 16aa-	.
.	16dd-\JJ) 16ff	.
16AA-\LL	8cc'\L 8ee-	.
16E-\	.	.
16A-\	8a-'\J 8cc	.
16c\JJ	.	.
*	*Xped	*
=54	=54	=54
*	*ped	*
(16EE-/LL	4g/ 4b- 4dd-	.
16BB-/	.	.
16E-/	.	.
16G/JJ)	.	.
(16B->\LL	4e-/ 4g 4b-	.
16d->\	.	.
16e->\	.	.
16g>\JJ	.	.
16b->\LL	4G<\ 4B-< 4e-<	.
16dd->\	.	.
16ee->\	.	.
16gg>\JJ)	.	.
*	*Xped	*
=55	=55	=55
4E-\ 4G 4B-	(16bb-\LL	>
.	16aa-\	.
.	16gg\	.
.	16ff\JJ)	.
16rf>	8ee-/	.
16dd->\LL	.	.
16cc>\	8ee-/ 8gg 8bb-	.
16b->\JJ	.	.
16a->\LL	8ee-/L 8aa- 8ccc	.
16g>\	.	.
16f>\	8ee-/J 8bb- 8ddd-	]]
16e->\JJ	.	.
=56	=56	=56
16cc>\LL	4ee-/ 4aa- 4ccc	.
16a->\	.	.
16e->\	.	.
16c>\JJ	.	.
(16A->/LL	4C<\ 4E-< 4A-<	.
16c>/	.	.
16e->/	.	.
16a->/JJ	.	.
16cc>/LL	4E-<\ 4A-< 4c<	.
16ee->/	.	.
16aa->/	.	.
16ccc>/JJ)	.	.
!!LO:LB:g=original	!	!
=57	=57	=57
4A-\ 4c 4e-	16eee-\LL	.
.	16ddd-\	.
.	16ccc\	.
.	16bb-\JJ	.
8rc>	16aa-\LL	.
.	16gg-X\	.
8aa->/ 8ccc> 8eee->	16ff\	.
.	16ee-\JJ	.
8aa->/L 8ddd-> 8fff>	16dd-\LL	.
.	16cc\	.
8aa->/J 8eee-> 8ggg-X>	16b-\	.
.	16a-\JJ	.
=58	=58	=58
*	*ped	*
16DD-/LL	4aa-\ 4ddd- 4fff	.
16AA-/	.	.
16D-/	.	.
16F/JJ	.	.
*clefG2	*	*
16A-/LL	8a-\L 8dd- 8ff 8aa-	.
16d-/	.	.
16f/	8dd-\J 8ff 8aa- 8ddd-	.
16a-/JJ	.	.
16dd-\LL	8ff\L 8aa- 8ddd- 8fff	.
16ff\	.	.
16aa-\	8bbn\J 8dddn 8aaa-	.
16ddn\JJ	.	.
*	*Xped	*
=59	=59	=59
4ee-\	16ccc\LL 16aaa-	>
.	16eee-\ 16ggg	.
.	16ddd-\ 16fff	.
.	16ccc\JJ 16eee-	.
4e-/	16bb-\LL 16ddd-	.
.	16aa-\ 16ccc	.
.	16gg\ 16bb-	.
.	16ff\JJ 16aa-	.
*clefF4	*	*
4E-\	16ee-\LL 16gg	.
.	16dd-\ 16ff	.
.	16cc\ 16ee-	.
.	16bn\JJ 16ddn	]]
=60	=60	=60
4EE-/	16b-X/LL 16dd-X	.
.	16e-/	.
.	16dn/ 16f	.
.	16d-X/JJ 16g	.
8r	8d-/L 8b-	.
8E-\	8d-/J 8e-	.
4AA-/	4c/ 4a-	.
=61||	=61||	=61||
8EE-/ 8E-	8g'\L 8ee-	p
.	8qcc/	.
4E-\ 4B-	(16g\L 16b-	.
.	16an\JJ)	.
.	8g'\L 8b-	.
8E-\ 8c-X	(16a-X\L 16gg	.
.	16ff\JJ)	.
8E-\L 8B-	8g'\L 8ee-	.
8E-\J 8c-	(16a-\L 16gg	.
.	16ff\JJ)	.
!!LO:LB:g=original	!	!
=62	=62	=62
8E-\	8g'\L 8ee-	.
.	8qccc/	.
4B-\ 4e- 4g	(16gg\L 16bb-	.
.	16ff#X\JJ) 16aan	.
.	8gg'\L 8bb-	.
8B-\ 8e- 8g	(16gg\L 16bb- 16ggg	.
.	16dddn\JJ)	.
8B-\L 8e- 8g	8gg'\L 8eee-	.
8B-\J 8e- 8g	(16gg\L 16ccc	.
.	16bb-\JJ)	.
=63	=63	=63
8BBB-/	8ff\ 8aa-	.
.	8qcc/	.
4BB-\ 4A-	16dn/LL 16b-	.
.	16an/JJ	.
.	8d/L 8b-	.
.	8qgg/	.
4B-\ 4a-	16ddn/L 16ff	.
.	16een/JJ	.
.	8dd\L 8ff	.
8B-\ 8a-	16dd\L 16gg	.
.	16aany\JJ	.
*clefG2	*	*
=64	=64	=64
8e-/L 8g	(16ee-\LL 16bb-	>
.	16eee-\	.
8e-/ 8an	16ff#X\ 16dddn	.
.	16aa-\JJ) 16ccc	.
8e-/ 8b-	(16gg\LL 16bb-	.
.	16ccc\	.
8dn/ 8bn	16ffn\ 16bb-	.
.	16aa-\JJ)	.
8c/ 8cc	(16ee-\LL 16gg	.
.	16aa-\	.
8B-/J 8f	16a-\ 16cc	.
.	16ddn\JJ)	]]
*clefF4	*	*
=65	=65	=65
8EE-/ 8E-	8g'/L 8ee-	p
.	8qcc/	.
4E-\ 4B-	(16g/L 16b-	.
.	16an/JJ)	.
.	8g'\L 8b-	.
8E-\ 8c-X	(16a-X\L 16gg	.
.	16ff\JJ)	.
8E-\L 8B-	8g'\L 8ee-	.
8E-\J 8c-	(16a-\L 16gg	.
.	16ff\JJ)	.
=66	=66	=66
8E-\	8g\L 8ee-	.
.	8qccc/	.
4B-\ 4e- 4g	16gg\L 16bb-	.
.	16ff#X\JJ 16aan	.
.	8gg\L 8bb-	.
8B-\ 8e- 8g	16gg\L 16ggg	.
.	16dddn\JJ	.
8B-\L 8e- 8g	16gg\LL 16eee-	.
.	16ddd\	.
8B-\J 8e- 8g	16gg\ 16ccc	.
.	16bb-\JJ	.
!!LO:LB:g=original	!	!
=67	=67	=67
*	*ped	*
4BBB-/ 4BB-	(16ddn\LL 16bb-	.
.	16aa-\ 16ccc	.
.	16dd\ 16bb-	.
.	16aa-\JJ 16ccc	.
4BB-\ 4B-	16dd\LL 16bb-	.
.	16aa-\ 16ccc	p
.	16dd\ 16bb-	.
.	16aa-\JJ 16ccc	.
*clefG2	*	*
4B-/ 4b-	16dd\LL 16bb-	.
.	16aa-\ 16ccc-X	.
.	16dd\ 16cccn	.
.	16aa-\JJ) 16dddn	.
*clefF4	*Xped	*
=68	=68	=68
*	*ped	*
4GG/ 4D-	(16gg\LL 16eee-	pp
.	16ddd-\ 16fff	.
.	16bb-\ 16eee-	.
.	16ddd-\JJ 16fff	.
4r	16bb-\LL 16eee-	.
.	16gg\ 16ddd-	.
.	16ee-\ 16bb-	.
.	16dd-\JJ 16gg	.
4r	16b-/LL 16ee-	.
.	16g/ 16dd-	.
.	16e-/ 16b-	.
.	16d-/JJ) 16g	.
*	*Xped	*
=69||	=69||	=69||
*	*ped	*
8AAA-/ 8AA-	(16aa-\LL 16ccc	.
.	16ee-\ 16bb-	.
4E-\ 4A- 4c	16cc\ 16aa-	.
.	16ee-\JJ 16bb-	.
.	16aa-\LL 16ccc	.
.	16ee-\ 16bb-	.
8E-\ 8A- 8c	16cc\ 16aa-	.
.	16dd-\JJ) 16ff	.
16AA-\LL	8cc'\L 8ee-	.
16E-\	.	.
16A-\	8a-'\J 8cc	.
16c\JJ	.	.
*	*Xped	*
=70	=70	=70
*	*ped	*
16EE-/LL	4g/ 4b- 4dd-	.
16BB-/	.	.
16E-/	.	.
16G/JJ	.	.
16B->\LL	4e-/ 4g 4b-	.
16d->\	.	.
16e->\	.	.
16g>\JJ	.	.
16b->/LL	4G<\ 4B-< 4e-<	.
16dd->/	.	.
16ee->/	.	.
16gg>/JJ	.	.
*	*Xped	*
=71	=71	=71
4E-\ 4G 4B-	16bb-\LL	>
.	16aa-\	.
.	16gg\	.
.	16ff\JJ	.
16rf>	8ee-/	.
16dd->\LL	.	.
16cc>\	8ee-/ 8gg 8bb-	.
16b->\JJ	.	.
16a->\LL	8ee-/L 8aa- 8ccc	.
16g>\	.	.
16f>\	8ee-/J 8bb- 8ddd-	]]
16e->\JJ	.	.
!!LO:LB:g=original	!	!
=72	=72	=72
16cc>\LL	4ee-/ 4aa- 4ccc	.
16a->\	.	.
16e->\	.	.
16c>\JJ	.	.
(16A->/LL	4C<\ 4E-< 4A-<	.
16c>/	.	.
16e->/	.	.
16a->/JJ	.	.
16cc>\LL	4E-<\ 4A-< 4c<	.
16ee->\	.	.
16aa->\	.	.
16ccc>\JJ)	.	.
=73	=73	=73
4A-\ 4c 4e-	16eee-/LL	.
.	16ddd-/	.
.	16ccc/	.
.	16bb-/JJ	.
8r	16aa-/LL	.
.	16gg-X/JJ	.
8aa->/ 8ccc> 8eee->	16ff\LL	.
.	16ee-\JJ	.
8aa->/L 8ddd-> 8fff>	16dd-\LL	.
.	16cc\	.
8aa->/J 8eee-> 8ggg-X>	16b-\	.
.	16a-\JJ	.
=74	=74	=74
(<16DD-/LL	4aa-\ 4ddd- 4fff	f
16AA-/	.	.
16D-/	.	.
16F/JJ	.	.
*clefG2	*	*
16A-/LL	8a-'\L 8dd- 8ff 8aa-	.
16d-/	.	.
16f/	8dd-'\J 8ff 8aa- 8ddd-	.
16a-/JJ	.	.
16dd-\LL	8ff'\L 8aa- 8ddd- 8fff	.
16ff\	.	.
16aa-\	8bbn'\J 8dddn 8aaa-	.
16ddn\JJ)	.	.
=75	=75	=75
4ee-\	(16ccc\LL 16aaa-	ff
.	16eee-\ 16ggg	.
.	16ddd-\ 16fff	.
.	16ccc\JJ 16eee-	.
4e-/	16bb-\LL 16ddd-	.
.	16aa-\ 16ccc	.
.	16gg\ 16bb-	.
.	16ff\JJ 16aa-	.
*clefF4	*	*
4E-\	16ee-\LL 16gg	.
.	16dd-\ 16ff	.
.	16cc\ 16ee-	.
.	16bn\JJ) 16ddn	.
=76	=76	=76
4EE-/	(16b-X/LL 16dd-X	.
.	16e-/	.
.	16dn/ 16f	.
.	16d-X/JJ 16g	.
8r	8d-/L) 8b-	.
8E-\	8d-'/J 8e-	.
!	!LO:TX:b:B:t=D.C.	!
4AA-/	4c/ 4a-	.
==	==	==
*-	*-	*-
!!!system-decoration: {(s1,s2)}
!!!RDF**kern: > = above
!!!RDF**kern: < = below
!!!ENC: Filip Voros
!!!END: 2022-08-02
!!!ENC: Natalia Wrzos
!!!END: 2022-09-09
